X: 34732
T: Road To Kingston, The
R: reel
M: 4/4
K: Gmajor
E|:DBBA BcBG|AGGG EGGE|DBBA B/c/def|fggg edBA|
DBBd BcBD|cDBD AGEG|cBcd egge|dBAF G2FG:|
|:DGBd g2f2|e3g edBA|DGBd g2b2|a3b agea|
d'c'ba geeg|agbg ageB|cBcd egge|dBAF G2FG:|

